X: 363
T: The Bard of Armagh
M:3/8
L:1/8
B:O'Neill's 363
N:"Plaintive."
N:"collected by Mary O'Neill."
Z:Transcribed by Chris Falt, cfalt@trytel.com
K:D
A|(dfd|e)(a>g)|(fed)|(cA>)A|
(df).d|(ea>)g|fde/2f/2|g2(f/2g/2)|
(af)a|(gf)e|(d>fe/2d/2)|(cA>)A|
d>(ef/2d/2)|ea>g|fde/2f/2|g2(e/2f/2)|
afa|gfe|ded|cA>A|
d>(ef/2d/2)|ea>g|fde|d2||


